X:997
T:Periwig, The
R:reel
H:Originally Scottish
Z:id:hn-reel-997
M:C|
L:1/8
K:Em
g2fg agfa | gefg dB~B2 | g2fg agfa |1 gefd ~e3f :|2 gefd ~e3g ||
|: dB~B2 dGBd | dGBd cA~A2 | dB~B2 GABd |1 g2fd efge :|2 g2fg edef ||

